assets/skin-mi-wbc/images/glasses.svg

<?xml version="1.0" encoding="utf-8"?>
<!-- Generator: Adobe Illustrator 21.0.0, SVG Export Plug-In . SVG Version: 6.00 Build 0)  -->
<svg version="1.1" id="Layer_1" xmlns="http://www.w3.org/2000/svg" xmlns:xlink="http://www.w3.org/1999/xlink" x="0px" y="0px"
	 viewBox="0 0 32 32" style="enable-background:new 0 0 32 32;" xml:space="preserve">
<style type="text/css">
	.st0{fill:#FFFFFF;}
</style>
<g id="Rectangle_9">
	<g>
		<path class="st0" d="M29,5.4H3c-1.3,0-2.4,1.1-2.4,2.4v16.5c0,1.3,1.1,2.4,2.4,2.4h9.4v-2.4H3V7.7h26v16.5h-9.4v2.4H29
			c1.3,0,2.4-1.1,2.4-2.4V7.7C31.4,6.4,30.3,5.4,29,5.4z"/>
	</g>
</g>
<g id="v">
	<g>
		<path class="st0" d="M10.1,11.3c-2.6,0-4.7,2.1-4.7,4.7s2.1,4.7,4.7,4.7s4.7-2.1,4.7-4.7S12.7,11.3,10.1,11.3z M10.1,18.4
			c-1.3,0-2.4-1.1-2.4-2.4s1.1-2.4,2.4-2.4s2.4,1.1,2.4,2.4S11.4,18.4,10.1,18.4z"/>
	</g>
</g>
<g id="v_copy">
	<g>
		<path class="st0" d="M21.9,11.3c-2.6,0-4.7,2.1-4.7,4.7s2.1,4.7,4.7,4.7s4.7-2.1,4.7-4.7S24.5,11.3,21.9,11.3z M21.9,18.4
			c-1.3,0-2.4-1.1-2.4-2.4s1.1-2.4,2.4-2.4s2.4,1.1,2.4,2.4S23.2,18.4,21.9,18.4z"/>
	</g>
</g>
<g id="Rectangle_10">
	<g>
		<path class="st0" d="M16,23.1c2,0,3.5,1.5,3.5,3.5h2.4c0-3.3-2.6-5.9-5.9-5.9s-5.9,2.6-5.9,5.9h2.4C12.5,24.6,14,23.1,16,23.1z"/>
	</g>
</g>
</svg>

<?xml version="1.0" encoding="UTF-8" standalone="no"?>
<!DOCTYPE svg PUBLIC "-//W3C//DTD SVG 1.1//EN" "http://www.w3.org/Graphics/SVG/1.1/DTD/svg11.dtd">
<svg width="100%" height="100%" viewBox="0 0 32 32" version="1.1" xmlns="http://www.w3.org/2000/svg" xmlns:xlink="http://www.w3.org/1999/xlink" xml:space="preserve" xmlns:serif="http://www.serif.com/" style="fill-rule:evenodd;clip-rule:evenodd;stroke-linejoin:round;stroke-miterlimit:1.41421;">
    <path id="Rectangle_10_1_" d="M21.9,20.7C24.5,20.7 26.6,18.6 26.6,16C26.6,13.4 24.5,11.3 21.9,11.3C19.3,11.3 17.2,13.4 17.2,16C17.2,18.6 19.3,20.7 21.9,20.7ZM21.9,13.6C23.2,13.6 24.3,14.7 24.3,16C24.3,17.3 23.2,18.4 21.9,18.4C20.6,18.4 19.5,17.3 19.5,16C19.5,14.7 20.6,13.6 21.9,13.6ZM10.1,20.7C12.7,20.7 14.8,18.6 14.8,16C14.8,13.4 12.7,11.3 10.1,11.3C7.5,11.3 5.4,13.4 5.4,16C5.4,18.6 7.5,20.7 10.1,20.7ZM10.1,13.6C11.4,13.6 12.5,14.7 12.5,16C12.5,17.3 11.4,18.4 10.1,18.4C8.8,18.4 7.7,17.3 7.7,16C7.7,14.7 8.8,13.6 10.1,13.6ZM29,5.4L3,5.4C1.7,5.4 0.6,6.5 0.6,7.8L0.6,24.3C0.6,25.6 1.7,26.7 3,26.7L12.4,26.7C12.4,24.7 13.9,23.2 15.9,23.2C17.9,23.2 19.4,24.7 19.4,26.7L29,26.7C30.3,26.7 31.4,25.6 31.4,24.3L31.4,7.7C31.4,6.4 30.3,5.4 29,5.4ZM29,24.3L21.4,24.3C20.5,22.2 18.4,20.8 16,20.8C13.6,20.8 11.5,22.2 10.6,24.3L3,24.3L3,7.7L29,7.7L29,24.3Z" style="fill:white;fill-rule:nonzero;stroke:black;stroke-opacity:0.541176;stroke-width:0.5px;"/>
</svg>
